X: 2159
T: Auld Hoose, The
R: strathspey
M: 4/4
K: Gmajor
GA|B4 A2 G2|A G3 E2 G2|D3 E G2 B2|A4-A2 GA|
B4 A2 G2|A G3 E2 G2|D2 B2 ~A3 B|G4- G2 AB|
c3 B c2 d2|e2 e2 d2 B2|d2 B2 A2 G2|A4- A2 GA|
B3 B A2 G2|A G3 E2 G2|D2 B2 ~A3 B|G4- G2||

